public/static/lp/juspay.svg

<svg xmlns="http://www.w3.org/2000/svg" width="160" height="48" viewBox="25 -15 150 70" fill="none">
  <path fill-rule="evenodd" clip-rule="evenodd" d="M22.0348 43.8126C20.9852 43.8417 19.9647 43.7544 18.9151 43.609C16.0869 43.2018 13.4337 42.3002 10.9845 40.817C5.56141 37.5596 2.09179 32.8189 0.663129 26.5949C0.342408 25.1989 0.196625 23.7738 0.196625 22.3487C0.167469 16.6483 2.03348 11.6458 5.82382 7.39958C9.1185 3.73501 13.2004 1.49555 18.0112 0.564863C19.3524 0.303108 20.6936 0.157689 22.0348 0.215856C22.0348 2.39715 22.0348 4.54936 22.0348 6.73065C21.9765 6.75973 21.9182 6.78881 21.8599 6.84698C21.0726 7.39958 20.2854 7.98125 19.5273 8.59202C17.8071 9.98804 16.1744 11.4713 14.804 13.2454C12.9671 15.6012 11.7426 18.1897 11.5676 21.2435C11.4802 22.6977 11.6551 24.1228 12.1216 25.4898C13.2587 28.8926 16.7866 32.4117 21.7432 32.499C22.0348 32.499 22.0931 32.5571 22.0931 32.8771C22.064 34.3603 22.064 37.3269 22.064 37.3269C22.064 37.3269 22.064 37.5014 22.064 37.5886C22.0348 39.6536 22.0348 41.7186 22.0348 43.8126Z" fill="#979AAD"/>
  <path fill-rule="evenodd" clip-rule="evenodd" d="M22.0343 6.70088C22.0343 6.70088 22.0343 2.36739 22.0343 0.186095C23.2297 0.157011 24.3959 0.273346 25.5622 0.44785C27.7489 0.796856 29.8482 1.4367 31.8308 2.45464C35.9419 4.57776 39.1782 7.60248 41.365 11.7324C42.6187 14.1173 43.4351 16.6476 43.7558 19.2942C44.1348 22.4062 43.8433 25.4891 42.9103 28.4847C41.8315 31.8875 40.0238 34.8832 37.4872 37.4135C34.3966 40.4673 30.7229 42.445 26.466 43.3466C25.0082 43.6374 23.5212 43.8119 22.0343 43.7828C22.0343 41.6888 22.0343 39.6238 22.0343 37.5298C22.0343 37.4426 22.0343 37.2971 22.0343 37.2971C22.0343 37.2971 22.1217 37.239 22.1509 37.2099C24.4251 35.6103 26.5827 33.8652 28.4487 31.7712C29.6732 30.4042 30.7229 28.9501 31.4518 27.2632C32.4723 24.8783 32.8805 22.4353 32.3556 19.8468C31.4226 15.1352 27.1949 11.6161 22.3258 11.4997C22.0051 11.4997 22.0343 11.238 22.0343 11.238V6.70088Z" fill="#979AAD"/>
  <path d="M67.6707 28.8207C67.6707 30.0524 67.4679 31.2254 67.0911 32.3691C66.7143 33.5128 66.1057 34.5098 65.3521 35.3896C64.5695 36.2693 63.6131 36.9438 62.4538 37.4717C61.2944 37.9702 59.9322 38.2341 58.4251 38.2341C55.9905 38.2341 53.9907 37.6476 52.4545 36.5039C50.8895 35.3603 49.875 33.5421 49.3823 31.0494L54.5124 29.8178C54.6863 30.8441 55.092 31.6653 55.7586 32.2811C56.3963 32.8969 57.2078 33.1902 58.1642 33.1902C59.7293 33.1902 60.8017 32.6623 61.3524 31.5773C61.9031 30.5216 62.1929 29.026 62.1929 27.1492V6.29883H67.6707V28.8207Z" fill="#979AAD"/>
  <path d="M97.8713 26.0055C97.8713 27.8823 97.5525 29.5832 96.9148 31.0787C96.2772 32.6037 95.4077 33.8647 94.3063 34.9204C93.205 35.9761 91.9007 36.7972 90.3936 37.3544C88.8865 37.9409 87.2344 38.2048 85.4664 38.2048C83.6985 38.2048 82.0464 37.9116 80.5683 37.3544C79.0611 36.7972 77.7569 35.9761 76.6265 34.9204C75.4962 33.8647 74.6267 32.5743 74.018 31.0787C73.3804 29.5832 73.0906 27.8823 73.0906 26.0055V6.29883H78.5684V25.8295C78.5684 26.592 78.6843 27.3838 78.9162 28.2342C79.1481 29.0553 79.5249 29.8471 80.0755 30.5509C80.5972 31.2547 81.3218 31.8412 82.2203 32.2811C83.0898 32.7503 84.1912 32.9556 85.4954 32.9556C86.7997 32.9556 87.901 32.721 88.7705 32.2811C89.64 31.8412 90.3646 31.2547 90.9153 30.5509C91.437 29.8471 91.8428 29.0846 92.0746 28.2342C92.3065 27.3838 92.4224 26.592 92.4224 25.8295V6.29883H97.9003V26.0055H97.8713Z" fill="#979AAD"/>
  <path d="M118.623 12.9858C118.044 12.1353 117.261 11.5195 116.305 11.109C115.319 10.6984 114.305 10.5224 113.232 10.5224C112.595 10.5224 111.986 10.6104 111.378 10.757C110.769 10.9037 110.247 11.1383 109.783 11.4609C109.291 11.7834 108.914 12.194 108.624 12.7218C108.334 13.2497 108.189 13.8362 108.189 14.54C108.189 15.5957 108.537 16.4168 109.291 16.9447C110.015 17.5019 110.914 18.0004 111.986 18.3816C113.059 18.7922 114.218 19.2027 115.493 19.584C116.768 19.9652 117.928 20.4931 119.029 21.1675C120.102 21.842 121 22.7511 121.725 23.8362C122.449 24.9505 122.826 26.4461 122.826 28.2643C122.826 29.9358 122.536 31.4021 121.927 32.6338C121.319 33.8947 120.507 34.9211 119.464 35.7422C118.42 36.5634 117.232 37.1792 115.87 37.5897C114.508 38.0003 113.059 38.2056 111.58 38.2056C109.668 38.2056 107.813 37.883 106.074 37.2378C104.306 36.5927 102.77 35.5076 101.494 33.9827L105.639 29.9358C106.305 30.9622 107.175 31.754 108.276 32.3405C109.378 32.927 110.508 33.1909 111.725 33.1909C112.363 33.1909 113.001 33.103 113.638 32.927C114.276 32.7511 114.856 32.4871 115.377 32.1352C115.899 31.7833 116.305 31.3434 116.624 30.7863C116.942 30.2584 117.116 29.6132 117.116 28.9094C117.116 27.7658 116.739 26.886 116.015 26.2702C115.29 25.6543 114.392 25.1265 113.319 24.7159C112.247 24.3054 111.059 23.8948 109.783 23.5136C108.508 23.1323 107.32 22.6045 106.277 21.9593C105.204 21.3142 104.306 20.4344 103.581 19.3201C102.856 18.2057 102.48 16.7394 102.48 14.8919C102.48 13.279 102.799 11.9007 103.465 10.7277C104.103 9.55471 104.972 8.58697 106.045 7.79519C107.088 7.03273 108.305 6.44622 109.668 6.06499C111.03 5.68376 112.421 5.50781 113.841 5.50781C115.464 5.50781 117.029 5.77174 118.565 6.24095C120.073 6.73948 121.464 7.56059 122.681 8.70428L118.623 12.9858Z" fill="#979AAD"/>
  <path d="M127.405 6.29883H137.752C139.23 6.29883 140.65 6.44545 142.042 6.73871C143.404 7.03196 144.621 7.53049 145.665 8.20498C146.708 8.90878 147.548 9.81787 148.157 10.9616C148.766 12.1346 149.085 13.5715 149.085 15.3017C149.085 17.2665 148.737 18.8501 148.07 20.0524C147.404 21.2548 146.505 22.1932 145.375 22.8383C144.244 23.4835 142.94 23.9527 141.433 24.1873C139.926 24.4219 138.39 24.5392 136.767 24.5392H132.854V37.4423H127.376V6.29883H127.405ZM136.187 19.8178C136.97 19.8178 137.781 19.7885 138.622 19.7298C139.462 19.6712 140.245 19.4952 140.94 19.202C141.636 18.9087 142.216 18.4688 142.679 17.8823C143.114 17.2958 143.346 16.4747 143.346 15.419C143.346 14.4513 143.143 13.6888 142.737 13.1023C142.331 12.5158 141.81 12.0759 141.172 11.7827C140.534 11.4601 139.81 11.2841 139.027 11.1962C138.245 11.1082 137.491 11.0495 136.767 11.0495H132.854V19.8178H136.187Z" fill="#979AAD"/>
  <path d="M159.606 6.29883H164.33L177.604 37.4423H171.344L168.475 30.3163H155.142L152.36 37.4423H146.215L159.606 6.29883ZM166.562 25.5656L161.808 12.897L156.997 25.5656H166.562Z" fill="#979AAD"/>
  <path d="M184.27 24.1286L172.706 6.29883H179.575L187.14 18.7035L194.791 6.29883H201.313L189.748 24.1286V37.4717H184.27V24.1286Z" fill="#979AAD"/>
</svg>

<svg xmlns="http://www.w3.org/2000/svg" width="160" height="48" fill="none" viewBox="25 -15 150 70"><path fill="#979AAD" fill-rule="evenodd" d="M22.035 43.813c-1.05.029-2.07-.059-3.12-.204-2.828-.407-5.481-1.309-7.93-2.792C5.56 37.56 2.091 32.819.663 26.595a18.952 18.952 0 0 1-.466-4.246c-.03-5.7 1.836-10.703 5.627-14.95C9.118 3.736 13.2 1.497 18.01.566c1.341-.262 2.683-.407 4.024-.35v6.516c-.058.029-.117.058-.175.116a44.162 44.162 0 0 0-2.333 1.745c-1.72 1.396-3.353 2.88-4.723 4.653-1.837 2.356-3.061 4.945-3.236 7.999a11.01 11.01 0 0 0 .554 4.246c1.137 3.403 4.665 6.922 9.621 7.009.292 0 .35.058.35.378-.029 1.483-.029 4.45-.029 4.45v.262c-.03 2.065-.03 4.13-.03 6.224Z" clip-rule="evenodd"/><path fill="#979AAD" fill-rule="evenodd" d="M22.034 6.7V.187c1.196-.029 2.362.087 3.528.262 2.187.349 4.286.989 6.269 2.007 4.11 2.123 7.347 5.147 9.534 9.277 1.254 2.385 2.07 4.916 2.39 7.562a21.804 21.804 0 0 1-.845 9.19c-1.078 3.403-2.886 6.4-5.423 8.93-3.09 3.053-6.764 5.031-11.021 5.933-1.458.29-2.945.465-4.432.436v-6.486s.088-.058.117-.087c2.274-1.6 4.432-3.345 6.298-5.439 1.224-1.367 2.274-2.82 3.003-4.508 1.02-2.385 1.428-4.828.904-7.416-.933-4.712-5.161-8.23-10.03-8.347-.32 0-.292-.262-.292-.262V6.701Z" clip-rule="evenodd"/><path fill="#979AAD" d="M67.67 28.82c0 1.232-.202 2.405-.579 3.55-.377 1.143-.985 2.14-1.739 3.02-.782.88-1.739 1.554-2.898 2.082-1.16.498-2.522.762-4.029.762-2.434 0-4.434-.586-5.97-1.73-1.566-1.144-2.58-2.962-3.073-5.455l5.13-1.231c.174 1.026.58 1.847 1.247 2.463.637.616 1.449.91 2.405.91 1.565 0 2.638-.529 3.188-1.614.551-1.055.84-2.551.84-4.428V6.3h5.479V28.82ZM97.871 26.006c0 1.876-.319 3.577-.956 5.073-.638 1.525-1.507 2.786-2.609 3.841a11.218 11.218 0 0 1-3.912 2.434c-1.508.587-3.16.85-4.928.85-1.767 0-3.42-.292-4.898-.85a11.615 11.615 0 0 1-3.942-2.434c-1.13-1.055-2-2.346-2.608-3.841-.638-1.496-.927-3.197-.927-5.073V6.299h5.477v19.53c0 .763.116 1.555.348 2.405a6.69 6.69 0 0 0 1.16 2.317c.521.704 1.246 1.29 2.144 1.73.87.47 1.971.675 3.275.675 1.305 0 2.406-.235 3.275-.675a6.314 6.314 0 0 0 2.145-1.73c.522-.704.928-1.466 1.16-2.317.231-.85.347-1.642.347-2.405V6.3H97.9v19.707h-.029ZM118.623 12.986c-.579-.85-1.362-1.466-2.318-1.877-.986-.41-2-.587-3.073-.587-.637 0-1.246.088-1.854.235a4.654 4.654 0 0 0-1.595.704 3.453 3.453 0 0 0-1.159 1.26c-.29.529-.435 1.115-.435 1.819 0 1.056.348 1.877 1.102 2.405.724.557 1.623 1.055 2.695 1.437 1.073.41 2.232.82 3.507 1.202 1.275.381 2.435.91 3.536 1.584 1.073.674 1.971 1.583 2.696 2.668.724 1.115 1.101 2.61 1.101 4.428 0 1.672-.29 3.138-.899 4.37-.608 1.26-1.42 2.287-2.463 3.108a10.752 10.752 0 0 1-3.594 1.848c-1.362.41-2.811.616-4.29.616a15.78 15.78 0 0 1-5.506-.968c-1.768-.645-3.304-1.73-4.58-3.255l4.145-4.047a6.984 6.984 0 0 0 2.637 2.404 7.158 7.158 0 0 0 3.449.85c.638 0 1.276-.087 1.913-.263a5.87 5.87 0 0 0 1.739-.792 3.955 3.955 0 0 0 1.247-1.349c.318-.528.492-1.173.492-1.877 0-1.143-.377-2.023-1.101-2.639-.725-.616-1.623-1.143-2.696-1.554a49.725 49.725 0 0 0-3.536-1.202 14.68 14.68 0 0 1-3.506-1.555c-1.073-.645-1.971-1.525-2.696-2.639-.725-1.114-1.101-2.58-1.101-4.428 0-1.613.319-2.991.985-4.164a8.9 8.9 0 0 1 2.58-2.933c1.043-.762 2.26-1.349 3.623-1.73a15.396 15.396 0 0 1 4.173-.557c1.623 0 3.188.264 4.724.733a11.04 11.04 0 0 1 4.116 2.463l-4.058 4.282ZM127.405 6.299h10.347c1.478 0 2.898.146 4.29.44 1.362.293 2.579.791 3.623 1.466a7.576 7.576 0 0 1 2.492 2.757c.609 1.173.928 2.61.928 4.34 0 1.965-.348 3.548-1.015 4.75-.666 1.203-1.565 2.141-2.695 2.786-1.131.645-2.435 1.115-3.942 1.35a30.115 30.115 0 0 1-4.666.351h-3.913v12.903h-5.478V6.3h.029Zm8.782 13.519c.783 0 1.594-.03 2.435-.088a7.263 7.263 0 0 0 2.318-.528 4.313 4.313 0 0 0 1.739-1.32c.435-.586.667-1.407.667-2.463 0-.968-.203-1.73-.609-2.317a3.807 3.807 0 0 0-1.565-1.32c-.638-.322-1.362-.498-2.145-.586a20.346 20.346 0 0 0-2.26-.146h-3.913v8.768h3.333ZM159.606 6.299h4.724l13.274 31.143h-6.26l-2.869-7.126h-13.333l-2.782 7.126h-6.145L159.606 6.3Zm6.956 19.267-4.754-12.669-4.811 12.669h9.565ZM184.27 24.129l-11.564-17.83h6.869l7.565 12.404L194.791 6.3h6.522l-11.565 17.83v13.343h-5.478V24.129Z"/></svg>
